resources/icons/16px/ship.svg

<svg width="16" height="16" viewBox="0 0 16 16" fill="none" xmlns="http://www.w3.org/2000/svg">
<path d="M5.43922 0.803884C5.5327 0.33646 5.94312 0 6.4198 0H9.58019C10.0569 0 10.4673 0.33646 10.5608 0.803884L10.8 2H13C13.5523 2 14 2.44772 14 3V6.71429L15.005 7.00144C15.5489 7.15684 15.8558 7.7321 15.6819 8.27039L14.4736 12.0104C14.4136 12.1959 14.3049 12.3515 14.1663 12.4679C14.4275 12.4884 14.7054 12.5 15 12.5C15.2761 12.5 15.5 12.7239 15.5 13C15.5 13.2761 15.2761 13.5 15 13.5C13.5392 13.5 12.4324 13.2389 11.6818 12.9709C11.3069 12.837 11.0218 12.7017 10.8264 12.597L10.822 12.5947C10.2696 12.967 9.32037 13.5 8 13.5C6.66626 13.5 5.71123 12.9561 5.16129 12.5834C4.41432 12.9566 3.06663 13.5 1 13.5C0.723858 13.5 0.5 13.2761 0.5 13C0.5 12.7239 0.723858 12.5 1 12.5C1.18814 12.5 1.36946 12.4951 1.54408 12.4859C1.54228 12.482 1.5405 12.4781 1.53875 12.4741C1.12681 11.5385 0.596169 9.64724 0.230293 8.21496C0.0977781 7.6962 0.405863 7.16975 0.920673 7.02267L2 6.71429V3C2 2.44772 2.44772 2 3 2H5.2L5.43922 0.803884ZM4 6.14286L7 5.28571V4H4V6.14286ZM9 5.28571L12 6.14286V4H9V5.28571ZM4.96389 13.5593C5.13161 13.4694 5.33579 13.4825 5.49062 13.5931C5.94558 13.9181 6.76775 14.5 8 14.5C9.23225 14.5 10.0544 13.9181 10.5094 13.5931C10.6826 13.4694 10.915 13.469 11.0886 13.5917L11.0946 13.5958C11.1013 13.6002 11.1306 13.619 11.1306 13.619C11.1653 13.6406 11.2213 13.6741 11.2986 13.7155C11.4532 13.7983 11.6931 13.913 12.0182 14.0291C12.6676 14.2611 13.6608 14.5 15 14.5C15.2761 14.5 15.5 14.7239 15.5 15C15.5 15.2761 15.2761 15.5 15 15.5C13.5392 15.5 12.4324 15.2389 11.6818 14.9709C11.3069 14.837 11.0218 14.7017 10.8264 14.597L10.822 14.5947C10.2696 14.967 9.32037 15.5 8 15.5C6.66626 15.5 5.71123 14.9561 5.16129 14.5834C4.41432 14.9566 3.06663 15.5 1 15.5C0.723858 15.5 0.5 15.2761 0.5 15C0.5 14.7239 0.723858 14.5 1 14.5C3.12866 14.5 4.38356 13.8702 4.96389 13.5593Z" fill="black"/>
</svg>

<svg xmlns="http://www.w3.org/2000/svg" viewBox="0 0 16 16">
  <path d="M5.44.804A1 1 0 0 1 6.42 0h3.16a1 1 0 0 1 .98.804L10.8 2H13a1 1 0 0 1 1 1v3.714l1.005.287a1 1 0 0 1 .677 1.27l-1.208 3.74a1 1 0 0 1-.308.457q.392.031.834.032a.5.5 0 0 1 0 1c-1.46 0-2.568-.261-3.318-.53a6 6 0 0 1-.856-.373l-.004-.002c-.552.372-1.502.905-2.822.905-1.334 0-2.289-.544-2.839-.917-.747.374-2.094.917-4.161.917a.5.5 0 0 1 0-1q.283 0 .544-.014l-.005-.012C1.127 11.54.596 9.647.23 8.215a.99.99 0 0 1 .69-1.192L2 6.714V3a1 1 0 0 1 1-1h2.2zM4 6.143l3-.857V4H4zm5-.857 3 .857V4H9zm-4.036 8.273a.5.5 0 0 1 .527.034c.455.325 1.277.907 2.509.907s2.054-.582 2.51-.907a.5.5 0 0 1 .579-.001l.006.004.036.023q.051.034.168.097c.154.082.394.197.72.313.649.232 1.642.471 2.981.471a.5.5 0 0 1 0 1c-1.46 0-2.568-.261-3.318-.53a6 6 0 0 1-.856-.373l-.004-.002c-.552.372-1.502.905-2.822.905-1.334 0-2.289-.544-2.839-.917-.747.374-2.094.917-4.161.917a.5.5 0 0 1 0-1c2.129 0 3.384-.63 3.964-.94"/>
</svg>
